X: 368
T: Yingmai maodun
%%abc-version 2.0
%%abcx-abcm2ps-target-version 5.9.1 (29 Sep 2008)
%%abc-creator hum2abc beta
%%abcx-conversion-date 2013/10/02 07:52:30
%%abc-edited-by Helmut Schaffrath
%%humdrum-veritas 20946489
%%humdrum-veritas-data 1873289857
%%continueall 1
%%barnumbers 0
L: 1/8
M: 2/4
K: A
b a b c' [I:setbarnb 1]| 
e' a g f | 
b a g f | 
e3f | 
b a b c' | 
e f a c' | 
b a g f | 
e4 | 
a f a b | 
c e f b | 
g f e g | 
f4 | 
e3f | 
a2b c' | 
b a g f | 
e3g | 
f ce2 |]  



